X: 10042
T: Dick Gossip's
R: reel
M: 4/4
K: Dmajor
|:F2 AF GFED|F2 AF GFED|E3F GFED|E3F GFED|
F2 AF GFED|F2 AF GFED|(3Bcd ef gece|d2 dc d2 AG|
f2 af gfed|f2 af gfed|e3f gfed|e3f gfed|
f2 af gfed|f2 af gfed|(3Bcd ef gece|d2 dc d2 ef||
|:gB B2 gBaB|gB B2 gfed|(3cBA eA fAeA|(3Bcd ef gfef|
gB B2 gBaB|gB B2 gfed|(3Bcd ef gece|1 d2 dc d2 ef:|2 d2 dc d2 AG||

